polaris-icons/icons/newicons/SortMinor.svg

<svg width="20" height="20" viewBox="0 0 20 20" fill="none" xmlns="http://www.w3.org/2000/svg">
<path d="M7.25 12.75C7.25 13.1642 6.91422 13.5 6.5 13.5C6.08579 13.5 5.75 13.1642 5.75 12.75L5.75 4.96299L3.75871 6.8011C3.45435 7.08206 2.97985 7.06308 2.6989 6.75871C2.41795 6.45434 2.43693 5.97985 2.74129 5.6989L5.99129 2.6989C6.27859 2.4337 6.72142 2.4337 7.00871 2.6989L10.2587 5.6989C10.5631 5.97985 10.5821 6.45435 10.3011 6.75871C10.0202 7.06308 9.54566 7.08206 9.24129 6.8011L7.25 4.96299V12.75Z" fill="black"/>
<path d="M14.25 7.25C14.25 6.83579 13.9142 6.5 13.5 6.5C13.0858 6.5 12.75 6.83579 12.75 7.25V15.037L10.7587 13.1989C10.4543 12.9179 9.97985 12.9369 9.6989 13.2413C9.41795 13.5457 9.43693 14.0202 9.74129 14.3011L12.9913 17.3011C13.2786 17.5663 13.7214 17.5663 14.0087 17.3011L17.2587 14.3011C17.5631 14.0202 17.5821 13.5457 17.3011 13.2413C17.0202 12.9369 16.5457 12.9179 16.2413 13.1989L14.25 15.037V7.25Z" fill="black"/>
</svg>

<svg viewBox="0 0 20 20" fill="none" xmlns="http://www.w3.org/2000/svg"><path d="M7.25 12.75a.75.75 0 0 1-1.5 0v-7.787l-1.991 1.838a.75.75 0 1 1-1.018-1.102l3.25-3a.75.75 0 0 1 1.018 0l3.25 3a.75.75 0 1 1-1.018 1.102l-1.991-1.838v7.787Z" fill="#5C5F62"/><path d="M14.25 7.25a.75.75 0 0 0-1.5 0v7.787l-1.991-1.838a.75.75 0 1 0-1.018 1.102l3.25 3a.75.75 0 0 0 1.018 0l3.25-3a.75.75 0 1 0-1.018-1.102l-1.991 1.838v-7.787Z" fill="#5C5F62"/></svg>
